X: 43487
T: Yellow Tinker, The
R: reel
M: 4/4
K: Gmixolydian
|:DG~G2 DEFE|DG~G2 BdcA|DG~G2 DEFA|cAFA c2 BA|
DG~G2 DEFE|DG~G2 B/c/dcA|DG~G2 DEFA|cAFA c2 Bc||
dG ~G2 B3c|dg g2 ^fdcA|dG ~G2 B3d|cAFA c2 Bc|
dG ~G2 ABBc|dg g2 ^fga^f|g2 de ^fga^f|gbag ^fdcA||
d2 BG (3Bcd BG|(3Bcd BG c2 BA|d2 BG Bcde|fdcA FG Bc|
d2 BG (3Bcd BG|(3Bcd BG c2 BA|~d3e ~f3d|cA^FA G4:|

